X:1
T:Welcome! Wanderer, Welcome!
T:Welcome! Wanderer, Welcome!
T:Ira David Sankey, 1884
T:Horatius Bonar, 1883
T:Public Domain Courtesy of the Cyber Hymnal™
C:Ira David Sankey, 1884
Z:Public Domain
Z:Courtesy of the Cyber Hymnal™
%%score ( 1 2 ) ( 3 4 )
L:1/8
Q:1/4=110
M:4/4
K:F
V:1 treble 
V:2 treble 
V:3 bass 
V:4 bass 
V:1
 [FA]3 [FA] [FA]2 [FA]2 | [Ec]4 [Ec]2 z2 | [DF]3 [DF] [DF]2 [DF]2 | [^CA]6 z2 | %4
w: 1.~In the land of|strang- ers,|Whi- ther thou art|gone,|
w: 2.~“From the land of|hun- ger,|Faint- ing, fam- ished|lone,|
w: 3.~“Leave the haunts of|ri- ot,|Wast- ed, woe- be-|gone,|
w: 4.~“See the door still|o- pen!|Thou art still my|own;|
w: 5.~“Far off thou hast|wan- dered,|Wilt thou far- ther|roam?|
w: 6.~“See the well- spread|ta- ble,|Un- for- got- ten|one!|
w: 7.~“Thou art friend- less,|home- less,|Hope- less, and un-|done;|
 [B,D]2 [DF]2 [CE]2 [B,D]2 | [A,C]4 [A,F]2 [FA]2 | [Ec]6 [Ec]2 | !fermata![Fc]6 z2 || %8
w: Hear a far voice|call- ing, “My|son! my|son!”|
w: Come to love and|glad- ness, My|son! my|son!”|
w: Sick at heart and|wear- y My|son! my|son!”|
w: Eyes of love are|on thee, My|son! my|son!”|
w: Come, and all is|par- doned, My|son! my|son!”|
w: Here is rest and|plen- ty, My|son! my|son!”|
w: Mine is love un-|chang- ing, My|son! my|son!”|
"^Refrain" .[FA]2 .[FA]2 .[FA]2 .[FA]2 | (c2 B2) [FA]4 | [^Fd]2 [Ac]2 [GB]2 [FA]2 | [GB]6 z2 | %12
w: ||||
w: ||||
w: ||||
w: “Wel- come, wan- d’rer,|wel- * come!|Wel- come back to|home!|
w: ||||
w: ||||
w: ||||
 [EB]2 [EG]2 [FA]2 [GB]2 | [Ac]2 [cf]2 !fermata![Bf]2 F2 | [FA]6 [EG]2 | F6 z2 |] %16
w: ||||
w: ||||
w: ||||
w: Thou hast wan- dered|far a- way: Come|home! come|home!”|
w: ||||
w: ||||
w: ||||
V:2
 x8 | x8 | x8 | x8 | x8 | x8 | x8 | x8 || x8 | F4 x4 | x8 | x8 | x8 | x8 | x8 | F6 x2 |] %16
V:3
 [F,C]3 [F,C] [F,C]2 [F,C]2 | [C,C]4 [C,B,]2 z2 | [D,A,]3 [D,A,] [D,A,]2 [D,A,]2 | [A,,A,]6 z2 | %4
 [B,,F,]2 [B,,F,]2 [B,,F,]2 [B,,F,]2 | [F,,F,]4 [F,,F,]2 F,2 | [C,G,]6 [C,B,]2 | %7
 !fermata![F,A,]6 z2 || [F,C]2 [F,C]2 [F,C]2 [F,C]2 | (E2 D2) [F,C]4 | %10
 [D,D]2 [D,D]2 [D,D]2 [D,D]2 | [G,D]6 z2 | [C,C]2 [B,C]2 [A,C]2 [G,C]2 | %13
 [F,_E]2 [A,,E]2 [B,,D]2 [B,,D]2 | [C,C]6 [C,B,]2 | [F,A,]6 z2 |] %16
V:4
 x8 | x8 | x8 | x8 | x8 | x6 F,2 | x8 | x8 || x8 | F,4 x4 | x8 | x8 | x8 | x8 | x8 | x8 |] %16

